;FLAVOR:Marlin
;TIME:2186
;Filament used: 2.3404m
;Layer height: 0.2
;MINX:85.841
;MINY:85.838
;MINZ:0.2
;MAXX:139.138
;MAXY:139.163
;MAXZ:4
;TARGET_MACHINE.NAME:Creality Ender-3 Pro
;Generated with Cura_SteamEngine 5.5.0
M82 ;absolute extrusion mode
; Ender 3 Custom Start G-code
G92 E0 ; Reset Extruder
G28 ; Home all axes
G1 Z5.0 F3000 ; Move Z Axis up a bit during heating to not damage bed
M104 S175 ; Start heating up the nozzle most of the way
M190 S55.0 ; Start heating the bed, wait until target temperature reached
M109 S235.0 ; Finish heating the nozzle
G1 Z2.0 F3000 ; Move Z Axis up little to prevent scratching of Heat Bed
G1 X0.1 Y20 Z0.3 F5000.0 ; Move to start position
G1 X0.1 Y200.0 Z0.3 F1500.0 E15 ; Draw the first line
G1 X0.4 Y200.0 Z0.3 F5000.0 ; Move to side a little
G1 X0.4 Y20 Z0.3 F1500.0 E30 ; Draw the second line
G92 E0 ; Reset Extruder
G1 Z2.0 F3000 ; Move Z Axis up little to prevent scratching of Heat Bed
G1 X5 Y20 Z0.3 F5000.0 ; Move over to prevent blob squish
G92 E0
G92 E0
G1 F1500 E-1.5
;LAYER_COUNT:20
;LAYER:0
M107
;MESH:Cap.stl
G0 F6000 X112.586 Y137.9 Z0.2
;TYPE:WALL-INNER
G1 F1500 E0
G1 F1200 X113.511 Y137.879 E0.03077
G1 X113.966 Y137.856 E0.04593
G1 X114.895 Y137.786 E0.07691
G1 X115.807 Y137.683 E0.10744
G1 X116.742 Y137.543 E0.13888
G1 X117.294 Y137.444 E0.15754
G1 X117.965 Y137.308 E0.18031
G1 X118.961 Y137.065 E0.21441
G1 X119.395 Y136.945 E0.22938
G1 X120.289 Y136.675 E0.26044
G1 X121.148 Y136.381 E0.29064
G1 X122.028 Y136.044 E0.32198
G1 X122.639 Y135.784 E0.34407
G1 X122.649 Y135.79 E0.34446
G1 X123.688 Y135.303 E0.38262
G1 X124.512 Y134.879 E0.41344
G1 X125.715 Y134.192 E0.45952
G1 X126.483 Y133.703 E0.4898
G1 X126.868 Y133.444 E0.50523
G1 X127.615 Y132.912 E0.53574
G1 X128.351 Y132.347 E0.5666
G1 X128.695 Y132.066 E0.58137
G1 X129.403 Y131.458 E0.61241
G1 X130.078 Y130.833 E0.64301
G1 X130.729 Y130.188 E0.67349
G1 X131.045 Y129.855 E0.68876
G1 X131.658 Y129.176 E0.71918
G1 X131.959 Y128.823 E0.73461
G1 X132.543 Y128.103 E0.76545
G1 X132.811 Y127.749 E0.78021
G1 X133.36 Y126.991 E0.81134
G1 X133.616 Y126.616 E0.82644
G1 X134.115 Y125.839 E0.85716
G1 X134.584 Y125.048 E0.88774
G1 X135.024 Y124.239 E0.91837
G1 X135.231 Y123.834 E0.9335
G1 X135.627 Y123.003 E0.96412
G1 X136.079 Y121.922 E1.00309
G1 X136.092 Y121.918 E1.00354
G1 X136.327 Y121.302 E1.02547
G1 X136.63 Y120.431 E1.05614
G1 X136.895 Y119.577 E1.08588
G1 X137.137 Y118.676 E1.11691
G1 X137.347 Y117.768 E1.14791
G1 X137.522 Y116.864 E1.17853
G1 X137.664 Y115.956 E1.2091
G1 X137.755 Y115.192 E1.23469
G1 X137.857 Y113.961 E1.27578
G1 X137.898 Y112.743 E1.31631
G1 X137.891 Y111.825 E1.34684
G1 X137.875 Y111.372 E1.36192
G1 X137.826 Y110.603 E1.38755
G1 X137.776 Y109.994 E1.40787
G1 X137.668 Y109.078 E1.43855
G1 X137.528 Y108.17 E1.46911
G1 X137.35 Y107.244 E1.50047
G1 X137.149 Y106.369 E1.53033
G1 X136.818 Y105.158 E1.57209
G1 X136.642 Y104.606 E1.59136
G1 X136.339 Y103.733 E1.62209
G1 X136.005 Y102.875 E1.65271
G1 X135.829 Y102.455 E1.66786
G1 X135.412 Y101.529 E1.70164
G1 X135.029 Y100.771 E1.72988
G1 X134.6 Y99.981 E1.75978
G1 X134.372 Y99.588 E1.7749
G1 X133.888 Y98.8 E1.80565
G1 X133.384 Y98.043 E1.8359
G1 X132.84 Y97.287 E1.86688
G1 X132.236 Y96.508 E1.89967
G1 X131.686 Y95.858 E1.92799
G1 X131.07 Y95.171 E1.95868
G1 X130.763 Y94.849 E1.97347
G1 X130.102 Y94.19 E2.00452
G1 X129.436 Y93.573 E2.03471
G1 X128.731 Y92.963 E2.06572
G1 X128.386 Y92.682 E2.08052
G1 X127.648 Y92.112 E2.11153
G1 X126.897 Y91.575 E2.14224
G1 X126.522 Y91.322 E2.15729
G1 X125.74 Y90.824 E2.18812
G1 X124.947 Y90.359 E2.2187
G1 X124.15 Y89.93 E2.2488
G1 X123.325 Y89.522 E2.27941
G1 X122.475 Y89.141 E2.3104
G1 X121.626 Y88.796 E2.34088
G1 X121.197 Y88.637 E2.35609
G1 X120.433 Y88.374 E2.38297
G1 X119.775 Y88.162 E2.40596
G1 X118.998 Y87.947 E2.43277
G1 X118.116 Y87.729 E2.46299
G1 X117.337 Y87.567 E2.48946
G1 X116.762 Y87.46 E2.50891
G1 X115.853 Y87.323 E2.53948
G1 X114.939 Y87.218 E2.57008
G1 X114.009 Y87.146 E2.60111
G1 X113.556 Y87.123 E2.6162
G1 X112.631 Y87.101 E2.64697
G1 X112.185 Y87.102 E2.6618
G1 X111.263 Y87.131 E2.69248
G1 X110.416 Y87.184 E2.72071
G1 X109.892 Y87.236 E2.73822
G1 X108.965 Y87.349 E2.76929
G1 X108.069 Y87.49 E2.79945
G1 X107.153 Y87.67 E2.8305
G1 X106.719 Y87.768 E2.8453
G1 X105.815 Y87.997 E2.87632
G1 X105.384 Y88.12 E2.89122
G1 X104.493 Y88.397 E2.92226
G1 X103.626 Y88.703 E2.95284
G1 X102.77 Y89.039 E2.98342
G1 X101.937 Y89.402 E3.01365
G1 X101.101 Y89.803 E3.04448
G1 X100.694 Y90.013 E3.05972
G1 X99.888 Y90.455 E3.09029
G1 X99.098 Y90.926 E3.12088
G1 X98.319 Y91.429 E3.15172
G1 X97.567 Y91.955 E3.18225
G1 X96.831 Y92.51 E3.21291
G1 X96.119 Y93.09 E3.24345
G1 X95.426 Y93.697 E3.27409
G1 X95.093 Y94.005 E3.28918
G1 X94.439 Y94.643 E3.31957
G1 X93.846 Y95.26 E3.34803
G1 X93.191 Y96 E3.3809
G1 X92.601 Y96.716 E3.41176
G1 X92.043 Y97.445 E3.44229
G1 X91.513 Y98.195 E3.47284
G1 X91.007 Y98.966 E3.50351
G1 X90.774 Y99.346 E3.51833
G1 X90.303 Y100.155 E3.54947
G1 X90.086 Y100.554 E3.56458
G1 X89.666 Y101.377 E3.59531
G1 X89.471 Y101.787 E3.61041
G1 X89.096 Y102.633 E3.64119
G1 X88.753 Y103.486 E3.67176
G1 X88.443 Y104.352 E3.70236
G1 X88.165 Y105.227 E3.73289
G1 X87.917 Y106.114 E3.76353
G1 X87.678 Y107.102 E3.79734
G1 X87.522 Y107.904 E3.82451
G1 X87.306 Y109.276 E3.87071
G1 X87.208 Y110.175 E3.90078
G1 X87.14 Y111.105 E3.9318
G1 X87.106 Y112.024 E3.96238
G1 X87.105 Y112.966 E3.99372
G1 X87.138 Y113.85 E4.02314
G1 X87.204 Y114.779 E4.05411
G1 X87.302 Y115.695 E4.08476
G1 X87.381 Y116.277 E4.10429
G1 X87.512 Y117.046 E4.13024
G1 X87.668 Y117.855 E4.15764
G1 X87.91 Y118.865 E4.19218
G1 X88.152 Y119.728 E4.22199
G1 X88.428 Y120.604 E4.25254
G1 X88.738 Y121.472 E4.2832
G1 X89.079 Y122.329 E4.31387
G1 X89.303 Y122.846 E4.33261
G1 X89.646 Y123.582 E4.35962
G1 X90.065 Y124.406 E4.39037
G1 X90.282 Y124.805 E4.40547
G1 X90.743 Y125.603 E4.43613
G1 X91.251 Y126.412 E4.4679
G1 X91.751 Y127.149 E4.49752
G1 X92.015 Y127.516 E4.51256
G1 X92.577 Y128.253 E4.54338
G1 X92.861 Y128.605 E4.55843
G1 X93.462 Y129.311 E4.58926
G1 X93.765 Y129.648 E4.60434
G1 X94.333 Y130.247 E4.63179
G1 X94.729 Y130.646 E4.65049
G1 X95.394 Y131.274 E4.68091
G1 X96.083 Y131.881 E4.71145
G1 X96.798 Y132.463 E4.74212
G1 X97.534 Y133.022 E4.77286
G1 X98.292 Y133.553 E4.80364
G1 X99.056 Y134.05 E4.83395
G1 X99.452 Y134.291 E4.84937
G1 X100.244 Y134.746 E4.87975
G1 X101.056 Y135.175 E4.91029
G1 X101.799 Y135.532 E4.93771
G1 X102.728 Y135.945 E4.97153
G1 X103.823 Y136.363 E5.01051
G1 X103.827 Y136.375 E5.01093
G1 X104.344 Y136.553 E5.02912
G1 X105.54 Y136.932 E5.07084
G1 X106.67 Y137.221 E5.10964
G1 X107.112 Y137.322 E5.12472
G1 X108.021 Y137.502 E5.15554
G1 X108.92 Y137.645 E5.18582
G1 X109.846 Y137.76 E5.21685
G1 X110.468 Y137.821 E5.23764
G1 X111.217 Y137.867 E5.2626
G1 X112.14 Y137.898 E5.29331
G1 X112.586 Y137.9 E5.30815
G0 F6000 X112.59 Y138.3
;TYPE:WALL-OUTER
G1 F1200 X113.525 Y138.279 E5.33925
G1 X113.991 Y138.255 E5.35477
G1 X114.933 Y138.184 E5.38619
G1 X115.859 Y138.079 E5.41719
G1 X116.807 Y137.938 E5.44907
G1 X117.369 Y137.837 E5.46806
G1 X118.052 Y137.698 E5.49124
G1 X119.061 Y137.452 E5.52578
G1 X119.506 Y137.329 E5.54114
G1 X120.411 Y137.056 E5.57258
G1 X121.284 Y136.757 E5.60327
G1 X122.178 Y136.415 E5.63511
G1 X122.796 Y136.152 E5.65745
G1 X122.807 Y136.158 E5.65786
G1 X123.864 Y135.662 E5.6967
G1 X124.703 Y135.231 E5.72807
G1 X125.922 Y134.534 E5.77477
G1 X126.702 Y134.038 E5.80552
G1 X127.096 Y133.773 E5.82131
G1 X127.853 Y133.234 E5.85222
G1 X128.599 Y132.661 E5.8835
G1 X128.952 Y132.373 E5.89866
G1 X129.669 Y131.756 E5.93012
G1 X130.355 Y131.122 E5.96119
G1 X131.015 Y130.468 E5.99209
G1 X131.339 Y130.127 E6.00773
G1 X131.959 Y129.44 E6.03851
G1 X132.267 Y129.079 E6.0543
G1 X132.858 Y128.35 E6.08551
G1 X133.133 Y127.987 E6.10066
G1 X133.687 Y127.221 E6.1321
G1 X133.95 Y126.837 E6.14758
G1 X134.455 Y126.049 E6.17871
G1 X134.932 Y125.246 E6.20977
G1 X135.378 Y124.426 E6.24082
G1 X135.59 Y124.011 E6.25632
G1 X135.992 Y123.166 E6.28744
G1 X136.447 Y122.08 E6.32661
G1 X136.46 Y122.076 E6.32706
G1 X136.703 Y121.439 E6.34973
G1 X137.01 Y120.556 E6.38083
G1 X137.279 Y119.688 E6.41105
G1 X137.525 Y118.773 E6.44257
G1 X137.739 Y117.851 E6.47405
G1 X137.916 Y116.933 E6.50514
G1 X138.06 Y116.01 E6.53621
G1 X138.153 Y115.232 E6.56227
G1 X138.257 Y113.984 E6.60392
G1 X138.298 Y112.748 E6.64506
G1 X138.291 Y111.817 E6.67602
G1 X138.275 Y111.352 E6.6915
G1 X138.225 Y110.574 E6.71743
G1 X138.174 Y109.954 E6.73812
G1 X138.064 Y109.024 E6.76927
G1 X137.922 Y108.102 E6.80029
G1 X137.742 Y107.161 E6.83216
G1 X137.537 Y106.274 E6.86244
G1 X137.201 Y105.043 E6.90488
G1 X137.022 Y104.48 E6.92453
G1 X136.715 Y103.595 E6.95568
G1 X136.376 Y102.725 E6.98674
G1 X136.196 Y102.295 E7.00224
G1 X135.773 Y101.357 E7.03647
G1 X135.383 Y100.585 E7.06524
G1 X134.949 Y99.785 E7.09551
G1 X134.716 Y99.383 E7.11096
G1 X134.225 Y98.584 E7.14215
G1 X133.713 Y97.815 E7.17288
G1 X133.16 Y97.047 E7.20436
G1 X132.547 Y96.256 E7.23764
G1 X131.988 Y95.595 E7.26643
G1 X131.364 Y94.899 E7.29752
G1 X131.049 Y94.569 E7.3127
G1 X130.38 Y93.902 E7.34412
G1 X129.703 Y93.275 E7.37481
G1 X128.988 Y92.657 E7.40624
G1 X128.634 Y92.368 E7.42144
G1 X127.886 Y91.791 E7.45286
G1 X127.125 Y91.247 E7.48397
G1 X126.741 Y90.988 E7.49938
G1 X125.949 Y90.483 E7.53062
G1 X125.143 Y90.01 E7.5617
G1 X124.333 Y89.574 E7.5923
G1 X123.495 Y89.16 E7.62339
G1 X122.632 Y88.773 E7.65485
G1 X121.771 Y88.423 E7.68576
G1 X121.331 Y88.26 E7.70136
G1 X120.559 Y87.994 E7.72852
G1 X119.89 Y87.779 E7.75189
G1 X119.1 Y87.56 E7.77916
G1 X118.204 Y87.339 E7.80986
G1 X117.414 Y87.175 E7.83669
G1 X116.828 Y87.066 E7.85652
G1 X115.906 Y86.927 E7.88753
G1 X114.977 Y86.82 E7.91863
G1 X114.035 Y86.747 E7.95006
G1 X113.571 Y86.723 E7.96551
G1 X112.635 Y86.701 E7.99665
G1 X112.178 Y86.702 E8.01185
G1 X111.245 Y86.731 E8.0429
G1 X110.384 Y86.785 E8.07159
G1 X109.848 Y86.838 E8.0895
G1 X108.909 Y86.953 E8.12097
G1 X107.999 Y87.096 E8.15161
G1 X107.071 Y87.278 E8.18306
G1 X106.626 Y87.379 E8.19824
G1 X105.711 Y87.611 E8.22963
G1 X105.27 Y87.736 E8.24488
G1 X104.367 Y88.017 E8.27633
G1 X103.486 Y88.328 E8.30741
G1 X102.617 Y88.669 E8.33846
G1 X101.771 Y89.038 E8.36915
G1 X100.923 Y89.445 E8.40044
G1 X100.506 Y89.66 E8.41604
G1 X99.689 Y90.108 E8.44703
G1 X98.887 Y90.586 E8.47809
G1 X98.096 Y91.097 E8.50941
G1 X97.332 Y91.631 E8.54041
G1 X96.584 Y92.195 E8.57157
G1 X95.861 Y92.784 E8.60259
G1 X95.158 Y93.399 E8.63365
G1 X94.817 Y93.715 E8.64912
G1 X94.155 Y94.361 E8.67988
G1 X93.552 Y94.989 E8.70884
G1 X92.887 Y95.74 E8.7422
G1 X92.288 Y96.467 E8.77353
G1 X91.721 Y97.208 E8.80456
G1 X91.182 Y97.97 E8.83561
G1 X90.669 Y98.752 E8.86671
G1 X90.43 Y99.141 E8.8819
G1 X89.955 Y99.959 E8.91336
G1 X89.732 Y100.367 E8.92883
G1 X89.307 Y101.2 E8.95993
G1 X89.107 Y101.62 E8.9754
G1 X88.728 Y102.477 E9.00657
G1 X88.379 Y103.344 E9.03765
G1 X88.064 Y104.224 E9.06874
G1 X87.781 Y105.113 E9.09977
G1 X87.53 Y106.013 E9.13085
G1 X87.287 Y107.016 E9.16517
G1 X87.128 Y107.835 E9.19292
G1 X86.91 Y109.223 E9.23965
G1 X86.81 Y110.139 E9.2703
G1 X86.74 Y111.083 E9.30178
G1 X86.706 Y112.016 E9.33284
G1 X86.705 Y112.973 E9.36467
G1 X86.738 Y113.872 E9.39459
G1 X86.806 Y114.815 E9.42603
G1 X86.905 Y115.743 E9.45707
G1 X86.985 Y116.337 E9.47701
G1 X87.118 Y117.118 E9.50336
G1 X87.277 Y117.939 E9.53117
G1 X87.523 Y118.965 E9.56626
G1 X87.768 Y119.842 E9.59655
G1 X88.049 Y120.732 E9.62759
G1 X88.364 Y121.613 E9.65871
G1 X88.709 Y122.483 E9.68984
G1 X88.938 Y123.01 E9.70895
G1 X89.286 Y123.757 E9.73636
G1 X89.711 Y124.592 E9.76752
G1 X89.933 Y125.001 E9.783
G1 X90.4 Y125.809 E9.81404
G1 X90.916 Y126.631 E9.84632
G1 X91.423 Y127.378 E9.87635
G1 X91.693 Y127.754 E9.89174
G1 X92.262 Y128.5 E9.92295
G1 X92.553 Y128.861 E9.93837
G1 X93.161 Y129.575 E9.96956
G1 X93.471 Y129.92 E9.98499
G1 X94.046 Y130.525 E10.01275
G1 X94.449 Y130.932 E10.0318
G1 X95.124 Y131.57 E10.06269
G1 X95.825 Y132.186 E10.09373
G1 X96.55 Y132.777 E10.12484
G1 X97.298 Y133.345 E10.15608
G1 X98.068 Y133.885 E10.18736
G1 X98.843 Y134.388 E10.21809
G1 X99.248 Y134.635 E10.23387
G1 X100.051 Y135.096 E10.26466
G1 X100.876 Y135.532 E10.2957
G1 X101.631 Y135.895 E10.32356
G1 X102.575 Y136.315 E10.35793
G1 X103.675 Y136.735 E10.39709
G1 X103.68 Y136.748 E10.39755
G1 X104.218 Y136.933 E10.41648
G1 X105.43 Y137.317 E10.45876
G1 X106.576 Y137.61 E10.4981
G1 X107.029 Y137.713 E10.51356
G1 X107.951 Y137.896 E10.54482
G1 X108.864 Y138.041 E10.57557
G1 X109.802 Y138.158 E10.60701
G1 X110.436 Y138.22 E10.62819
G1 X111.198 Y138.267 E10.65359
G1 X112.132 Y138.298 E10.68467
G1 X112.59 Y138.3 E10.6999
G0 F6000 X112.579 Y137.539
;TYPE:SKIN
G1 F1200 X112.152 Y137.538 E10.7141
G1 X111.238 Y137.507 E10.74452
G1 X110.491 Y137.461 E10.76941
G1 X109.89 Y137.402 E10.7895
G1 X108.966 Y137.287 E10.82047
G1 X108.089 Y137.148 E10.85
G1 X107.183 Y136.968 E10.88072
G1 X106.76 Y136.872 E10.89515
G1 X105.631 Y136.582 E10.93392
G1 X104.458 Y136.21 E10.97485
G1 X103.961 Y136.04 E10.99232
G1 X103.943 Y136.022 E10.99317
G1 X102.876 Y135.615 E11.03115
G1 X101.946 Y135.202 E11.06499
G1 X101.212 Y134.85 E11.09207
G1 X100.414 Y134.427 E11.12211
G1 X99.64 Y133.982 E11.1518
G1 X99.245 Y133.741 E11.16719
G1 X98.499 Y133.258 E11.19675
G1 X97.742 Y132.727 E11.22751
G1 X97.016 Y132.176 E11.25782
G1 X96.312 Y131.602 E11.28803
G1 X95.632 Y131.004 E11.31815
G1 X94.977 Y130.385 E11.34813
G1 X94.028 Y129.399 E11.39364
G1 X93.732 Y129.071 E11.40834
G1 X93.138 Y128.376 E11.43874
G1 X92.858 Y128.028 E11.4536
G1 X92.306 Y127.301 E11.48396
G1 X91.987 Y126.853 E11.50225
G1 X91.551 Y126.21 E11.52809
G1 X91.049 Y125.411 E11.55948
G1 X90.594 Y124.624 E11.58971
G1 X90.383 Y124.234 E11.60446
G1 X89.973 Y123.427 E11.63457
G1 X89.673 Y122.792 E11.65793
G1 X89.408 Y122.186 E11.67992
G1 X89.073 Y121.338 E11.71025
G1 X88.767 Y120.483 E11.74045
G1 X88.497 Y119.623 E11.77043
G1 X88.256 Y118.767 E11.80001
G1 X88.022 Y117.785 E11.83359
G1 X87.866 Y116.979 E11.86089
G1 X87.736 Y116.216 E11.88664
G1 X87.66 Y115.651 E11.9056
G1 X87.564 Y114.752 E11.93567
G1 X87.497 Y113.824 E11.96661
G1 X87.465 Y112.965 E11.9952
G1 X87.467 Y112.036 E12.0261
G1 X87.499 Y111.131 E12.05622
G1 X87.568 Y110.202 E12.08721
G1 X87.663 Y109.332 E12.11631
G1 X87.877 Y107.972 E12.1621
G1 X88.027 Y107.186 E12.18872
G1 X88.265 Y106.21 E12.22213
G1 X88.508 Y105.336 E12.2523
G1 X88.781 Y104.474 E12.28238
G1 X89.088 Y103.621 E12.31253
G1 X89.427 Y102.779 E12.34272
G1 X89.799 Y101.938 E12.37331
G1 X89.987 Y101.54 E12.38795
G1 X90.403 Y100.726 E12.41835
G1 X90.616 Y100.336 E12.43313
G1 X91.081 Y99.535 E12.46394
G1 X91.314 Y99.155 E12.47876
G1 X91.808 Y98.402 E12.50871
G1 X92.33 Y97.663 E12.53881
G1 X92.88 Y96.945 E12.56889
G1 X93.463 Y96.238 E12.59937
G1 X94.117 Y95.499 E12.63219
G1 X94.691 Y94.901 E12.65976
G1 X95.338 Y94.269 E12.68984
G1 X95.664 Y93.967 E12.70462
G1 X96.347 Y93.369 E12.73482
G1 X97.048 Y92.798 E12.76489
G1 X97.776 Y92.25 E12.79519
G1 X98.517 Y91.733 E12.82524
G1 X99.289 Y91.233 E12.85584
G1 X100.067 Y90.768 E12.88598
G1 X101.257 Y90.128 E12.93092
G1 X102.092 Y89.728 E12.96172
G1 X102.903 Y89.375 E12.99114
G1 X103.747 Y89.044 E13.02129
G1 X104.601 Y88.742 E13.05142
G1 X105.489 Y88.466 E13.08235
G1 X105.915 Y88.344 E13.09708
G1 X106.8 Y88.12 E13.12745
G1 X107.234 Y88.021 E13.14225
G1 X108.139 Y87.844 E13.17292
G1 X109.008 Y87.707 E13.20218
G1 X109.936 Y87.594 E13.23328
G1 X110.438 Y87.544 E13.25006
G1 X111.286 Y87.491 E13.27832
G1 X112.196 Y87.462 E13.3086
G1 X112.622 Y87.462 E13.32277
G1 X113.537 Y87.483 E13.35321
G1 X113.982 Y87.507 E13.36803
G1 X114.911 Y87.578 E13.39902
G1 X115.811 Y87.682 E13.42915
G1 X116.707 Y87.818 E13.45929
G1 X117.935 Y88.054 E13.50089
G1 X118.903 Y88.294 E13.53406
G1 X119.664 Y88.506 E13.56033
G1 X120.314 Y88.715 E13.58304
G1 X121.071 Y88.975 E13.60966
G1 X121.491 Y89.13 E13.62455
G1 X122.328 Y89.471 E13.65461
G1 X123.177 Y89.851 E13.68555
G1 X123.989 Y90.253 E13.71569
G1 X124.764 Y90.669 E13.74494
G1 X125.546 Y91.129 E13.77512
G1 X126.321 Y91.623 E13.80568
G1 X126.687 Y91.869 E13.82035
G1 X127.427 Y92.399 E13.85063
G1 X128.164 Y92.967 E13.88157
