;FLAVOR:Marlin
;TIME:1643
;Filament used: 1.05886m
;Layer height: 0.1
;MINX:85.876
;MINY:86.701
;MINZ:0.3
;MAXX:138.298
;MAXY:139.164
;MAXZ:4
;TARGET_MACHINE.NAME:Creality Ender-3 Pro
;Generated with Cura_SteamEngine 5.5.0
M82 ;absolute extrusion mode
; Ender 3 Custom Start G-code
G92 E0 ; Reset Extruder
G28 ; Home all axes
G1 Z5.0 F3000 ; Move Z Axis up a bit during heating to not damage bed
M104 S175 ; Start heating up the nozzle most of the way
M190 S55.0 ; Start heating the bed, wait until target temperature reached
M109 S225.0 ; Finish heating the nozzle
G1 Z2.0 F3000 ; Move Z Axis up little to prevent scratching of Heat Bed
G1 X0.1 Y20 Z0.3 F5000.0 ; Move to start position
G1 X0.1 Y200.0 Z0.3 F1500.0 E15 ; Draw the first line
G1 X0.4 Y200.0 Z0.3 F5000.0 ; Move to side a little
G1 X0.4 Y20 Z0.3 F1500.0 E30 ; Draw the second line
G92 E0 ; Reset Extruder
G1 Z2.0 F3000 ; Move Z Axis up little to prevent scratching of Heat Bed
G1 X5 Y20 Z0.3 F5000.0 ; Move over to prevent blob squish
G92 E0
G92 E0
G1 F1500 E-1.5
;LAYER_COUNT:38
;LAYER:0
M107
;MESH:Cap.stl
G0 F6000 X112.124 Y137.896 Z0.3
;TYPE:WALL-INNER
G1 F1500 E0
G1 F1200 X113.068 Y137.893 E0.0471
G1 X113.989 Y137.854 E0.09309
G1 X114.703 Y137.801 E0.12881
G1 X115.507 Y137.724 E0.1691
G1 X116.74 Y137.543 E0.23128
G1 X117.612 Y137.38 E0.27553
G1 X118.055 Y137.285 E0.29814
G1 X118.976 Y137.059 E0.34545
G1 X119.838 Y136.816 E0.39013
G1 X120.707 Y136.536 E0.43568
G1 X121.145 Y136.382 E0.45884
G1 X122.007 Y136.053 E0.50487
G1 X122.846 Y135.696 E0.55036
G1 X123.3 Y135.489 E0.57526
G1 X124.099 Y135.098 E0.61964
G1 X124.903 Y134.666 E0.66517
G1 X125.704 Y134.198 E0.71146
G1 X126.471 Y133.712 E0.75676
G1 X127.232 Y133.19 E0.8028
G1 X127.608 Y132.918 E0.82595
G1 X128.341 Y132.355 E0.87206
G1 X128.695 Y132.067 E0.89483
G1 X129.385 Y131.474 E0.94022
G1 X130.072 Y130.84 E0.98686
G1 X130.398 Y130.522 E1.00958
G1 X131.042 Y129.86 E1.05566
G1 X131.658 Y129.177 E1.10154
G1 X132.245 Y128.478 E1.14708
G1 X132.811 Y127.752 E1.19301
G1 X133.352 Y127.003 E1.2391
G1 X133.865 Y126.238 E1.28506
G1 X134.343 Y125.462 E1.33053
G1 X134.577 Y125.061 E1.35369
G1 X135.012 Y124.261 E1.39912
G1 X135.429 Y123.425 E1.44573
G1 X135.575 Y123.112 E1.46296
G1 X135.985 Y122.176 E1.51394
G1 X136.324 Y121.31 E1.56034
G1 X136.627 Y120.441 E1.60625
G1 X136.767 Y120.005 E1.6291
G1 X137.055 Y119.019 E1.68035
G1 X137.346 Y117.778 E1.74394
G1 X137.52 Y116.879 E1.78962
G1 X137.723 Y115.506 E1.85887
G1 X137.771 Y115.06 E1.88125
G1 X137.856 Y113.974 E1.93559
G1 X137.898 Y112.755 E1.99645
G1 X137.891 Y111.805 E2.04384
G1 X137.824 Y110.508 E2.10864
G1 X137.728 Y109.555 E2.15642
G1 X137.665 Y109.06 E2.18132
G1 X137.524 Y108.147 E2.22741
G1 X137.357 Y107.277 E2.2716
G1 X137.152 Y106.38 E2.31751
G1 X136.822 Y105.17 E2.38008
G1 X136.635 Y104.584 E2.41077
G1 X136.343 Y103.744 E2.45514
G1 X136.009 Y102.888 E2.50098
G1 X135.644 Y102.039 E2.54708
G1 X135.455 Y101.627 E2.5697
G1 X135.044 Y100.799 E2.61582
G1 X134.606 Y99.992 E2.66163
G1 X134.377 Y99.598 E2.68436
G1 X133.894 Y98.808 E2.73056
G1 X133.391 Y98.053 E2.77582
G1 X132.847 Y97.296 E2.82233
G1 X132.244 Y96.517 E2.87147
G1 X131.694 Y95.867 E2.91395
G1 X131.086 Y95.191 E2.95931
G1 X130.438 Y94.52 E3.00585
G1 X130.114 Y94.2 E3.02857
G1 X129.445 Y93.581 E3.07404
G1 X128.743 Y92.974 E3.12034
G1 X128.389 Y92.685 E3.14314
G1 X127.722 Y92.165 E3.18534
G1 X127.186 Y91.774 E3.21844
G1 X126.533 Y91.33 E3.25783
G1 X125.75 Y90.831 E3.30415
G1 X124.957 Y90.364 E3.35007
G1 X124.16 Y89.935 E3.39523
G1 X123.323 Y89.521 E3.44181
G1 X122.918 Y89.335 E3.46405
G1 X122.06 Y88.969 E3.51058
G1 X121.213 Y88.642 E3.55588
G1 X120.329 Y88.338 E3.60252
G1 X119.906 Y88.204 E3.62466
G1 X119.008 Y87.949 E3.67123
G1 X118.567 Y87.836 E3.69394
G1 X117.666 Y87.632 E3.74003
G1 X116.77 Y87.463 E3.78552
G1 X116.321 Y87.39 E3.80821
G1 X115.541 Y87.285 E3.84748
G1 X114.772 Y87.198 E3.88609
G1 X113.564 Y87.123 E3.94647
G1 X112.643 Y87.101 E3.99244
G1 X112.197 Y87.102 E4.01469
G1 X111.242 Y87.132 E4.06236
G1 X110.313 Y87.195 E4.10881
G1 X109.3 Y87.3 E4.15962
G1 X108.08 Y87.489 E4.22121
G1 X107.164 Y87.668 E4.26778
G1 X106.73 Y87.765 E4.28996
G1 X105.826 Y87.994 E4.33649
G1 X105.362 Y88.126 E4.36055
G1 X104.503 Y88.393 E4.40543
G1 X103.635 Y88.699 E4.45135
G1 X103.178 Y88.873 E4.47575
G1 X102.268 Y89.249 E4.52487
G1 X101.106 Y89.8 E4.58903
G1 X100.263 Y90.244 E4.63656
G1 X99.502 Y90.679 E4.68029
G1 X99.114 Y90.917 E4.703
G1 X98.41 Y91.371 E4.7448
G1 X97.957 Y91.678 E4.7721
G1 X97.206 Y92.223 E4.81839
G1 X96.482 Y92.789 E4.86424
G1 X95.784 Y93.378 E4.90981
G1 X95.437 Y93.686 E4.93295
G1 X94.764 Y94.319 E4.97905
G1 X94.441 Y94.639 E5.00173
G1 X93.802 Y95.309 E5.04792
G1 X93.497 Y95.647 E5.07064
G1 X92.905 Y96.34 E5.11611
G1 X92.326 Y97.069 E5.16255
G1 X91.781 Y97.81 E5.20844
G1 X91.269 Y98.56 E5.25375
G1 X90.773 Y99.347 E5.30016
G1 X90.309 Y100.144 E5.34617
G1 X90.092 Y100.542 E5.36879
G1 X89.662 Y101.386 E5.41604
G1 X89.284 Y102.2 E5.46082
G1 X88.927 Y103.047 E5.50668
G1 X88.602 Y103.901 E5.55226
G1 X88.488 Y104.225 E5.5694
G1 X88.167 Y105.217 E5.62142
G1 X87.92 Y106.103 E5.66731
G1 X87.81 Y106.544 E5.68998
G1 X87.61 Y107.448 E5.73617
G1 X87.442 Y108.352 E5.78205
G1 X87.309 Y109.261 E5.82788
G1 X87.209 Y110.163 E5.87316
G1 X87.141 Y111.093 E5.91968
G1 X87.107 Y112.012 E5.96556
G1 X87.106 Y112.966 E6.01315
G1 X87.139 Y113.873 E6.05843
G1 X87.19 Y114.589 E6.09424
G1 X87.251 Y115.248 E6.12726
G1 X87.362 Y116.13 E6.17161
G1 X87.436 Y116.613 E6.19599
G1 X87.602 Y117.519 E6.24194
G1 X87.794 Y118.39 E6.28644
G1 X87.911 Y118.864 E6.3108
G1 X88.148 Y119.717 E6.35497
G1 X88.427 Y120.599 E6.40112
G1 X88.591 Y121.07 E6.426
G1 X88.903 Y121.894 E6.46996
G1 X89.074 Y122.314 E6.49258
G1 X89.465 Y123.199 E6.54085
G1 X89.847 Y123.985 E6.58445
G1 X90.277 Y124.797 E6.63029
G1 X90.737 Y125.593 E6.67616
G1 X91.226 Y126.373 E6.72209
G1 X91.749 Y127.144 E6.76857
G1 X92.289 Y127.881 E6.81415
G1 X92.855 Y128.598 E6.85973
G1 X93.457 Y129.306 E6.90609
G1 X93.758 Y129.641 E6.92856
G1 X94.394 Y130.312 E6.97468
G1 X94.719 Y130.636 E6.99758
G1 X95.388 Y131.269 E7.04353
G1 X95.727 Y131.572 E7.06621
G1 X96.428 Y132.168 E7.11212
G1 X97.096 Y132.693 E7.15451
G1 X97.6 Y133.072 E7.18597
G1 X98.281 Y133.545 E7.22733
G1 X99.047 Y134.043 E7.27292
G1 X99.443 Y134.285 E7.29607
G1 X100.233 Y134.74 E7.34155
G1 X101.047 Y135.17 E7.38748
G1 X101.789 Y135.527 E7.42856
G1 X102.717 Y135.94 E7.47924
G1 X103.812 Y136.359 E7.53773
G1 X103.816 Y136.371 E7.53836
G1 X104.333 Y136.549 E7.56564
G1 X105.528 Y136.929 E7.6282
G1 X106.659 Y137.218 E7.68644
G1 X107.102 Y137.319 E7.70911
G1 X108.009 Y137.499 E7.75524
G1 X109.232 Y137.687 E7.81697
G1 X110.279 Y137.802 E7.86952
G1 X111.207 Y137.866 E7.91593
G1 X112.124 Y137.896 E7.9617
G0 F6000 X112.118 Y138.296
;TYPE:WALL-OUTER
G1 F1200 X113.077 Y138.293 E8.00955
G1 X114.012 Y138.254 E8.05624
G1 X114.737 Y138.199 E8.09251
G1 X115.555 Y138.121 E8.13351
G1 X116.806 Y137.937 E8.19659
G1 X117.691 Y137.772 E8.2415
G1 X118.145 Y137.675 E8.26467
G1 X119.078 Y137.446 E8.31259
G1 X119.954 Y137.199 E8.358
G1 X120.835 Y136.915 E8.40418
G1 X121.283 Y136.758 E8.42787
G1 X122.157 Y136.424 E8.47455
G1 X123.008 Y136.062 E8.52068
G1 X123.471 Y135.851 E8.54607
G1 X124.281 Y135.454 E8.59107
G1 X125.099 Y135.015 E8.63739
G1 X125.912 Y134.54 E8.68437
G1 X126.691 Y134.046 E8.73039
G1 X127.462 Y133.517 E8.77703
G1 X127.847 Y133.238 E8.80076
G1 X128.589 Y132.669 E8.84741
G1 X128.951 Y132.374 E8.8707
G1 X129.651 Y131.773 E8.91673
G1 X130.347 Y131.13 E8.96401
G1 X130.681 Y130.805 E8.98726
G1 X131.334 Y130.134 E9.03397
G1 X131.96 Y129.44 E9.0806
G1 X132.556 Y128.73 E9.12684
G1 X133.131 Y127.992 E9.17352
G1 X133.68 Y127.231 E9.22033
G1 X134.201 Y126.454 E9.26701
G1 X134.686 Y125.668 E9.31308
G1 X134.925 Y125.257 E9.3368
G1 X135.367 Y124.446 E9.38288
G1 X135.789 Y123.599 E9.4301
G1 X136.355 Y122.329 E9.49946
G1 X136.699 Y121.449 E9.5466
G1 X137.006 Y120.568 E9.59315
G1 X137.149 Y120.123 E9.61647
G1 X137.442 Y119.121 E9.66855
G1 X137.737 Y117.862 E9.73306
G1 X137.914 Y116.947 E9.77956
G1 X138.12 Y115.556 E9.84971
G1 X138.169 Y115.097 E9.87274
G1 X138.256 Y113.996 E9.92784
G1 X138.298 Y112.76 E9.98954
G1 X138.291 Y111.793 E10.03779
G1 X138.223 Y110.478 E10.10348
G1 X138.126 Y109.51 E10.15202
G1 X138.061 Y109.004 E10.17747
G1 X137.918 Y108.079 E10.22417
G1 X137.749 Y107.195 E10.26907
G1 X137.54 Y106.285 E10.31565
G1 X137.205 Y105.055 E10.37925
G1 X137.015 Y104.458 E10.41051
G1 X136.719 Y103.606 E10.45551
G1 X136.379 Y102.736 E10.50211
G1 X136.01 Y101.877 E10.54875
G1 X135.816 Y101.455 E10.57192
G1 X135.399 Y100.615 E10.61871
G1 X134.955 Y99.796 E10.66519
G1 X134.721 Y99.393 E10.68844
G1 X134.231 Y98.593 E10.73524
G1 X133.72 Y97.825 E10.78126
G1 X133.167 Y97.057 E10.82848
G1 X132.555 Y96.265 E10.87841
G1 X131.996 Y95.604 E10.9216
G1 X131.379 Y94.918 E10.96763
G1 X130.722 Y94.238 E11.01481
G1 X130.39 Y93.911 E11.03805
G1 X129.712 Y93.283 E11.08416
G1 X129 Y92.668 E11.1311
G1 X128.639 Y92.373 E11.15436
G1 X127.963 Y91.845 E11.19715
G1 X127.416 Y91.447 E11.2309
G1 X126.753 Y90.996 E11.27091
G1 X125.959 Y90.49 E11.31788
G1 X125.153 Y90.016 E11.36453
G1 X124.344 Y89.579 E11.4104
G1 X123.495 Y89.16 E11.45764
G1 X123.08 Y88.969 E11.48043
G1 X122.21 Y88.598 E11.52761
G1 X121.35 Y88.266 E11.57361
G1 X120.455 Y87.958 E11.62083
G1 X120.021 Y87.821 E11.64353
G1 X119.112 Y87.563 E11.69067
G1 X118.661 Y87.447 E11.71391
G1 X117.748 Y87.24 E11.76061
G1 X116.839 Y87.069 E11.80676
G1 X116.379 Y86.994 E11.83001
G1 X115.59 Y86.888 E11.86973
G1 X114.807 Y86.8 E11.90904
G1 X113.582 Y86.723 E11.97027
G1 X112.647 Y86.701 E12.01693
G1 X112.19 Y86.702 E12.03973
G1 X111.222 Y86.732 E12.08805
G1 X110.279 Y86.797 E12.13521
G1 X109.249 Y86.903 E12.18687
G1 X108.011 Y87.095 E12.24937
G1 X107.082 Y87.276 E12.29659
G1 X106.637 Y87.376 E12.31934
G1 X105.722 Y87.608 E12.36644
G1 X105.248 Y87.742 E12.39101
G1 X104.377 Y88.013 E12.43652
G1 X103.497 Y88.323 E12.48307
G1 X103.03 Y88.501 E12.508
G1 X102.106 Y88.883 E12.55789
G1 X100.927 Y89.442 E12.62298
G1 X100.071 Y89.893 E12.67126
G1 X99.298 Y90.335 E12.71568
G1 X98.901 Y90.578 E12.7389
G1 X98.189 Y91.037 E12.78117
G1 X97.727 Y91.35 E12.80901
G1 X96.965 Y91.903 E12.85598
G1 X96.23 Y92.479 E12.90257
G1 X95.522 Y93.076 E12.94877
G1 X95.167 Y93.39 E12.97242
G1 X94.486 Y94.031 E13.01907
G1 X94.155 Y94.359 E13.04232
G1 X93.509 Y95.037 E13.08904
G1 X93.197 Y95.383 E13.11229
G1 X92.596 Y96.086 E13.15843
G1 X92.008 Y96.826 E13.20558
G1 X91.455 Y97.578 E13.25215
G1 X90.935 Y98.34 E13.29818
G1 X90.431 Y99.14 E13.34535
G1 X89.961 Y99.948 E13.39199
G1 X89.738 Y100.356 E13.41518
G1 X89.302 Y101.211 E13.46307
G1 X88.918 Y102.038 E13.50856
G1 X88.555 Y102.898 E13.55513
G1 X88.226 Y103.763 E13.6013
G1 X88.109 Y104.097 E13.61895
G1 X87.784 Y105.101 E13.6716
G1 X87.533 Y106.001 E13.71822
G1 X87.42 Y106.452 E13.74141
G1 X87.218 Y107.368 E13.78821
G1 X87.047 Y108.286 E13.8348
G1 X86.912 Y109.21 E13.88139
G1 X86.811 Y110.127 E13.92741
G1 X86.741 Y111.071 E13.97464
G1 X86.707 Y112.004 E14.02122
G1 X86.706 Y112.973 E14.06956
G1 X86.739 Y113.895 E14.11559
G1 X86.791 Y114.622 E14.15195
G1 X86.853 Y115.292 E14.18552
G1 X86.966 Y116.186 E14.23048
G1 X87.042 Y116.679 E14.25536
G1 X87.21 Y117.598 E14.30197
G1 X87.404 Y118.481 E14.34708
G1 X87.524 Y118.966 E14.372
G1 X87.764 Y119.831 E14.41679
G1 X88.047 Y120.725 E14.46357
G1 X88.215 Y121.206 E14.48899
G1 X88.531 Y122.04 E14.53348
G1 X88.706 Y122.47 E14.55665
G1 X89.102 Y123.367 E14.60556
G1 X89.49 Y124.166 E14.64988
G1 X89.927 Y124.991 E14.69645
G1 X90.394 Y125.799 E14.74301
G1 X90.891 Y126.591 E14.78966
G1 X91.422 Y127.374 E14.83686
G1 X91.971 Y128.123 E14.88319
G1 X92.545 Y128.852 E14.92948
G1 X93.156 Y129.57 E14.97652
G1 X93.464 Y129.913 E14.99952
G1 X94.108 Y130.591 E15.04617
G1 X94.44 Y130.923 E15.0696
G1 X95.117 Y131.563 E15.11608
G1 X95.464 Y131.874 E15.13932
G1 X96.175 Y132.478 E15.18587
G1 X96.852 Y133.01 E15.22882
G1 X97.366 Y133.396 E15.26089
G1 X98.058 Y133.877 E15.30294
G1 X98.833 Y134.381 E15.34906
G1 X99.239 Y134.629 E15.37279
G1 X100.04 Y135.09 E15.4189
G1 X100.867 Y135.527 E15.46557
G1 X101.621 Y135.89 E15.50732
G1 X102.564 Y136.31 E15.55882
G1 X103.664 Y136.731 E15.61758
G1 X103.669 Y136.744 E15.61828
G1 X104.207 Y136.929 E15.64666
G1 X105.418 Y137.314 E15.71006
G1 X106.565 Y137.607 E15.76912
G1 X107.018 Y137.71 E15.79229
G1 X107.939 Y137.893 E15.83914
G1 X109.18 Y138.084 E15.90178
G1 X110.243 Y138.2 E15.95513
G1 X111.187 Y138.266 E16.00234
G1 X112.118 Y138.296 E16.04882
G1 F1500 E14.54882
G0 F6000 X112.338 Y113.016
;TYPE:SKIN
G1 F1500 E16.04882
G1 F1200 X112.661 Y112.992 E16.06497
G1 X112.849 Y112.901 E16.07539
G1 X113.026 Y112.66 E16.09031
G1 X113.053 Y112.528 E16.09703
G1 X113.009 Y112.32 E16.10764
G1 X112.844 Y112.093 E16.12164
G1 X112.592 Y111.986 E16.1353
G1 X112.287 Y112.005 E16.15055
G1 X112.037 Y112.195 E16.16621
G1 X111.941 Y112.5 E16.18217
G1 X112.048 Y112.81 E16.19853
G1 X112.187 Y112.95 E16.20837
G1 X112.338 Y113.016 E16.21659
G0 F6000 X112.268 Y113.423
G1 F1200 X112.765 Y113.388 E16.24145
G1 X113.101 Y113.225 E16.26008
G1 X113.28 Y113.035 E16.2731
G1 X113.405 Y112.811 E16.2859
G1 X113.461 Y112.526 E16.30039
G1 X113.382 Y112.156 E16.31927
G1 X113.148 Y111.788 E16.34102
G1 X112.665 Y111.585 E16.36716
G1 X112.412 Y111.57 E16.37981
G1 X112.132 Y111.619 E16.39399
G1 X111.716 Y111.933 E16.41999
G1 X111.58 Y112.227 E16.43615
G1 X111.531 Y112.529 E16.45142
G1 X111.606 Y112.803 E16.46559
G1 X111.704 Y113.032 E16.47802
G1 X111.956 Y113.285 E16.49583
G1 X112.268 Y113.423 E16.51285
G0 F6000 X112.117 Y113.793
G1 F1200 X112.454 Y113.813 E16.52969
G1 X112.865 Y113.784 E16.55025
G1 X113.344 Y113.552 E16.5768
G1 X113.607 Y113.272 E16.59597
G1 X113.786 Y112.95 E16.61435
G1 X113.851 Y112.617 E16.63127
G1 X113.831 Y112.345 E16.64488
G1 X113.758 Y111.999 E16.66252
G1 X113.543 Y111.663 E16.68242
G1 X113.342 Y111.441 E16.69737
G1 X113.032 Y111.288 E16.71461
G1 X112.744 Y111.188 E16.72982
G1 X112.391 Y111.167 E16.74746
G1 X112.025 Y111.232 E16.76601
G1 X111.804 Y111.365 E16.77888
G1 X111.578 Y111.535 E16.79299
G1 X111.365 Y111.739 E16.8077
G1 X111.193 Y112.108 E16.82801
G1 X111.143 Y112.414 E16.84348
G1 X111.151 Y112.658 E16.85566
G1 X111.229 Y112.943 E16.8704
G1 X111.364 Y113.258 E16.8875
G1 X111.725 Y113.622 E16.91308
G1 X112.117 Y113.793 E16.93441
G0 F6000 X112.026 Y114.189
G1 F1200 X112.459 Y114.215 E16.95606
G1 X112.836 Y114.188 E16.97491
G1 X113.084 Y114.123 E16.9877
G1 X113.583 Y113.884 E17.01531
G1 X113.93 Y113.513 E17.04065
G1 X114.167 Y113.087 E17.06497
G1 X114.255 Y112.64 E17.0877
G1 X114.23 Y112.3 E17.10471
G1 X114.133 Y111.841 E17.12811
G1 X113.863 Y111.42 E17.15307
G1 X113.588 Y111.116 E17.17352
G1 X113.184 Y110.916 E17.19601
G1 X112.824 Y110.79 E17.21504
G1 X112.369 Y110.764 E17.23777
G1 X111.881 Y110.85 E17.26249
G1 X111.578 Y111.034 E17.28018
G1 X111.32 Y111.227 E17.29626
G1 X111.09 Y111.449 E17.3122
G1 X110.945 Y111.693 E17.32636
G1 X110.805 Y111.993 E17.34288
G1 X110.742 Y112.39 E17.36293
G1 X110.753 Y112.714 E17.37911
G1 X110.849 Y113.077 E17.39784
G1 X111.028 Y113.489 E17.42025
G1 X111.407 Y113.873 E17.44717
G1 X111.616 Y114.012 E17.45969
G1 X112.026 Y114.189 E17.48197
G0 F6000 X112.464 Y114.617
G1 F1200 X112.902 Y114.586 E17.50388
G1 X113.222 Y114.503 E17.52037
G1 X113.651 Y114.296 E17.54414
G1 X113.926 Y114.105 E17.56084
G1 X114.255 Y113.751 E17.58495
G1 X114.548 Y113.226 E17.61495
G1 X114.659 Y112.663 E17.64357
G1 X114.63 Y112.255 E17.66398
G1 X114.509 Y111.683 E17.69315
G1 X114.183 Y111.176 E17.72322
G1 X113.962 Y110.932 E17.73965
G1 X113.751 Y110.749 E17.75358
G1 X113.334 Y110.543 E17.77679
G1 X112.905 Y110.392 E17.79948
G1 X112.351 Y110.361 E17.82716
G1 X111.732 Y110.471 E17.85852
G1 X111.357 Y110.7 E17.88044
G1 X111.064 Y110.919 E17.89869
G1 X110.772 Y111.198 E17.91884
G1 X110.59 Y111.506 E17.93669
G1 X110.418 Y111.874 E17.95696
G1 X110.341 Y112.365 E17.98175
G1 X110.355 Y112.777 E18.00232
G1 X110.467 Y113.201 E18.0242
G1 X110.649 Y113.621 E18.04704
G1 X110.784 Y113.812 E18.0587
G1 X111.156 Y114.188 E18.08509
G1 X111.418 Y114.362 E18.10078
